themes/default/assets/images/icons/mid/deep-understanding.svg

<?xml version="1.0" encoding="UTF-8"?>
<svg width="99px" height="74px" viewBox="0 0 99 74" version="1.1" xmlns="http://www.w3.org/2000/svg" xmlns:xlink="http://www.w3.org/1999/xlink">
    <!-- Generator: sketchtool 59 (101010) - https://sketch.com -->
    <title>11E8C1BB-7E41-4437-98D6-5286AF3DA999</title>
    <desc>Created with sketchtool.</desc>
    <g id="Page-1" stroke="none" stroke-width="1" fill="none" fill-rule="evenodd">
        <g id="Icons" transform="translate(-374.000000, -2286.000000)" fill-rule="nonzero">
            <g id="mid-icon-deepunderstanding" transform="translate(374.000000, 2286.000000)">
                <path d="M43.1089109,26.1315789 L31.3267327,26.1315789 L31.3267327,19.8651316 L43.1089109,19.8651316 L43.1089109,26.1315789 Z M32.6732673,24.7796053 L41.7227723,24.7796053 L41.7227723,21.2171053 L32.6732673,21.2171053 L32.6732673,24.7796053 Z" id="Shape" fill="#2364F9"></path>
                <path d="M98.6633663,72.7203947 L69.3069307,55.7565789 C77.6972626,41.373086 75.437621,23.1786812 63.7817593,11.2684593 C52.1258976,-0.64176254 33.9333092,-3.34590658 19.2980813,4.65641103 C4.66285336,12.6587286 -2.82460271,29.4043261 0.99009901,45.6019737 C5.02697881,62.2503547 19.964312,73.987244 37.1485149,74.0135102 C40.0848489,74.0258669 43.0125115,73.6946488 45.8712871,73.0263158 C55.2349872,70.807859 63.3659111,65.0464612 68.5445545,56.9605263 L98.019802,73.9046053 C98.1260194,73.9626909 98.2451823,73.993232 98.3663366,73.9934211 C98.6102538,73.9953044 98.8366735,73.867422 98.960396,73.6578947 C99.0527494,73.4956835 99.0732048,73.3024806 99.0168557,73.1246289 C98.9605066,72.9467771 98.832437,72.8003226 98.6633663,72.7203947 L98.6633663,72.7203947 Z M45.5445545,71.6546053 C33.1251535,74.6196748 20.0620874,70.7556355 11.2760868,61.5180335 C2.49008619,52.2804314 -0.684046408,39.0726783 2.94935406,26.8700068 C6.58275453,14.6673354 16.4716881,5.32362183 28.8910891,2.35855263 C31.6416324,1.70467155 34.4594313,1.37347699 37.2871287,1.37171053 C55.4135984,1.37889927 70.6646674,14.9090336 72.7729065,32.8532637 C74.8811456,50.7974938 63.178951,67.473525 45.5445545,71.6546053 L45.5445545,71.6546053 Z" id="Shape" fill="#A6C4DD"></path>
                <path d="M45.2475248,24.7697368 L29.1881188,24.7697368 L29.1881188,30.4638158 L20.9108911,30.4638158 L20.9108911,52.1743421 L53.5841584,52.1743421 L53.5841584,35.2993421 L45.2475248,35.2993421 L45.2475248,24.7697368 Z M29.1881188,50.8421053 L22.2574257,50.8421053 L22.2574257,31.8355263 L29.1881188,31.8355263 L29.1881188,50.8421053 Z M38.8415842,50.8421053 L35.6435644,50.8421053 L35.6435644,46.8947368 L38.8910891,46.8947368 L38.8415842,50.8421053 Z M43.8712871,50.8421053 L40.2277228,50.8421053 L40.2277228,45.5032895 L34.2178218,45.5032895 L34.2178218,50.8421053 L30.5742574,50.8421053 L30.5742574,26.1710526 L43.8712871,26.1710526 L43.8712871,50.8421053 Z M52.1485149,36.6710526 L52.1485149,50.8421053 L45.2178218,50.8421053 L45.2178218,36.6710526 L52.1485149,36.6710526 Z" id="Shape" fill="#A6C4DD"></path>
                <path d="M32.6732673,34.2927632 L41.7425743,34.2927632 C42.0081241,34.3245687 42.2683366,34.2012405 42.4111917,33.9758706 C42.5540469,33.7505008 42.5540469,33.463315 42.4111917,33.2379452 C42.2683366,33.0125753 42.0081241,32.8892471 41.7425743,32.9210526 L32.6732673,32.9210526 C32.4077175,32.8892471 32.147505,33.0125753 32.0046498,33.2379452 C31.8617947,33.463315 31.8617947,33.7505008 32.0046498,33.9758706 C32.147505,34.2012405 32.4077175,34.3245687 32.6732673,34.2927632 L32.6732673,34.2927632 Z" id="Path" fill="#A6C4DD"></path>
                <path d="M32.6732673,38.2796053 L41.7425743,38.2796053 C42.0081241,38.3114108 42.2683366,38.1880826 42.4111917,37.9627127 C42.5540469,37.7373429 42.5540469,37.4501571 42.4111917,37.2247873 C42.2683366,36.9994174 42.0081241,36.8760892 41.7425743,36.9078947 L32.6732673,36.9078947 C32.4077175,36.8760892 32.147505,36.9994174 32.0046498,37.2247873 C31.8617947,37.4501571 31.8617947,37.7373429 32.0046498,37.9627127 C32.147505,38.1880826 32.4077175,38.3114108 32.6732673,38.2796053 L32.6732673,38.2796053 Z" id="Path" fill="#A6C4DD"></path>
                <path d="M32.6732673,30.2960526 L41.7425743,30.2960526 C42.0081241,30.3278581 42.2683366,30.2045299 42.4111917,29.9791601 C42.5540469,29.7537902 42.5540469,29.4666045 42.4111917,29.2412346 C42.2683366,29.0158648 42.0081241,28.8925366 41.7425743,28.9243421 L32.6732673,28.9243421 C32.4077175,28.8925366 32.147505,29.0158648 32.0046498,29.2412346 C31.8617947,29.4666045 31.8617947,29.7537902 32.0046498,29.9791601 C32.147505,30.2045299 32.4077175,30.3278581 32.6732673,30.2960526 L32.6732673,30.2960526 Z" id="Path" fill="#A6C4DD"></path>
                <path d="M32.6732673,42.2763158 L41.7425743,42.2763158 C42.0081241,42.3081213 42.2683366,42.1847931 42.4111917,41.9594232 C42.5540469,41.7340534 42.5540469,41.4468677 42.4111917,41.2214978 C42.2683366,40.996128 42.0081241,40.8727998 41.7425743,40.9046053 L32.6732673,40.9046053 C32.4077175,40.8727998 32.147505,40.996128 32.0046498,41.2214978 C31.8617947,41.4468677 31.8617947,41.7340534 32.0046498,41.9594232 C32.147505,42.1847931 32.4077175,42.3081213 32.6732673,42.2763158 L32.6732673,42.2763158 Z" id="Path" fill="#A6C4DD"></path>
                <path d="M6.6039604,34.2927655 L6.6039604,34.2927655 C6.41741381,34.282584 6.24260571,34.1988097 6.11813979,34.0599405 C5.99367386,33.9210713 5.92978931,33.7385313 5.94059406,33.5526316 C7.01980198,15.375 22.7722772,8.29934211 22.9108911,8.22039474 C23.2608537,8.06506465 23.6708899,8.22191226 23.8267327,8.57072368 C23.9825754,8.91953511 23.8252101,9.32822255 23.4752475,9.48355263 C23.3168317,9.54276316 8.35643564,16.3125 7.2970297,33.6513158 C7.2710134,34.0134352 6.96820403,34.2936904 6.6039604,34.2927655 L6.6039604,34.2927655 Z" id="Path" fill="#002465"></path>
                <path d="M13.3762376,56.6940789 C13.1988513,56.698483 13.0272948,56.6307986 12.9009901,56.5065789 C7.36633663,51.3157895 5.94059406,42.1282895 5.94059406,41.7335526 C5.9124189,41.5537689 5.958703,41.3702885 6.06883803,41.2251652 C6.17897306,41.0800419 6.34351559,40.9857192 6.52475248,40.9638158 C6.70624183,40.9356567 6.89146231,40.9815239 7.03862567,41.0910692 C7.18578903,41.2006145 7.28249691,41.3646087 7.30693069,41.5460526 C7.30693069,41.6348684 8.68316832,50.6546053 13.8712871,55.5098684 C14.0068954,55.6384076 14.0836636,55.8167656 14.0836636,56.0032895 C14.0836636,56.1898133 14.0068954,56.3681713 13.8712871,56.4967105 C13.7419288,56.6296594 13.5619024,56.7014331 13.3762376,56.6940789 L13.3762376,56.6940789 Z" id="Path" fill="#002465"></path>
            </g>
        </g>
    </g>
</svg>

<svg width="99" height="74" xmlns="http://www.w3.org/2000/svg"><g fill-rule="nonzero" fill="none"><path d="M43.109 26.132H31.327v-6.267h11.782v6.267zM32.673 24.78h9.05v-3.563h-9.05v3.563z" fill="#2364F9"/><path d="M98.663 72.72L69.307 55.757c8.39-14.384 6.13-32.578-5.525-44.489C52.126-.642 33.933-3.346 19.298 4.656 4.663 12.66-2.825 29.404.99 45.602 5.027 62.25 19.964 73.987 37.15 74.014a37.623 37.623 0 008.722-.988 37.066 37.066 0 0022.674-16.065L98.02 73.905a.725.725 0 00.346.088.684.684 0 00.594-.335.67.67 0 00-.297-.938zm-53.118-1.065c-12.42 2.965-25.483-.9-34.269-10.137A35.544 35.544 0 012.95 26.87C6.583 14.667 16.472 5.324 28.891 2.359a36.401 36.401 0 018.396-.987c18.127.007 33.378 13.537 35.486 31.481 2.108 17.944-9.594 34.62-27.228 38.802z" fill="#A6C4DD"/><path d="M45.248 24.77h-16.06v5.694h-8.277v21.71h32.673V35.3h-8.336V24.77zm-16.06 26.072h-6.93V31.836h6.93v19.006zm9.654 0h-3.198v-3.947h3.247l-.05 3.947zm5.03 0h-3.644v-5.339h-6.01v5.34h-3.644V26.17h13.297v24.671zm8.277-14.17v14.17h-6.931v-14.17h6.93z" fill="#A6C4DD"/><path d="M32.673 34.293h9.07a.689.689 0 100-1.372h-9.07a.689.689 0 100 1.372zM32.673 38.28h9.07a.689.689 0 100-1.372h-9.07a.689.689 0 100 1.372zM32.673 30.296h9.07a.689.689 0 100-1.372h-9.07a.689.689 0 100 1.372zM32.673 42.276h9.07a.689.689 0 100-1.372h-9.07a.689.689 0 100 1.372z" fill="#A6C4DD"/><path d="M6.604 34.293a.704.704 0 01-.663-.74C7.02 15.375 22.772 8.299 22.91 8.22a.69.69 0 11.564 1.263c-.158.06-15.119 6.83-16.178 24.168a.692.692 0 01-.693.642zM13.376 56.694a.655.655 0 01-.475-.187c-5.535-5.191-6.96-14.379-6.96-14.773a.67.67 0 01.584-.77.685.685 0 01.782.582c0 .089 1.376 9.109 6.564 13.964a.68.68 0 010 .987.655.655 0 01-.495.197z" fill="#002465"/></g></svg>
